icons/lock-outline.svg

<svg xmlns="http://www.w3.org/2000/svg" width="24" height="24" viewBox="0 0 24 24">
  <path d="M12,1 C14.6887547,1 16.8818181,3.12230671 16.9953805,5.78311038 L17,6 L17,8 C18.6568542,8 20,9.34314575 20,11 L20,11 L20,19 C20,20.6568542 18.6568542,22 17,22 L17,22 L7,22 C5.34314575,22 4,20.6568542 4,19 L4,19 L4,11 C4,9.34314575 5.34314575,8 7,8 L7,8 L7,6 C7,3.23857625 9.23857625,1 12,1 Z M17,10 L7,10 C6.44771525,10 6,10.4477153 6,11 L6,11 L6,19 C6,19.5522847 6.44771525,20 7,20 L7,20 L17,20 C17.5522847,20 18,19.5522847 18,19 L18,19 L18,11 C18,10.4477153 17.5522847,10 17,10 L17,10 Z M12,11 C13.1045695,11 14,11.8954305 14,13 C14,13.7398375 13.5982846,14.3858493 13.0010775,14.7318119 L13,18 C13,18.5522847 12.5522847,19 12,19 C11.4477153,19 11,18.5522847 11,18 L10.9999275,14.7323937 C10.4021661,14.3865739 10,13.7402524 10,13 C10,11.8954305 10.8954305,11 12,11 Z M12,3 C10.4023191,3 9.09633912,4.24891996 9.00509269,5.82372721 L9,6 L9,8 L15,8 L15,6 C15,4.34314575 13.6568542,3 12,3 Z"/>
</svg>

<svg xmlns="http://www.w3.org/2000/svg" viewBox="0 0 24 24">
  <path d="M12 1a5 5 0 0 1 5 4.78V8a3 3 0 0 1 3 3v8a3 3 0 0 1-3 3H7a3 3 0 0 1-3-3v-8a3 3 0 0 1 3-3V6a5 5 0 0 1 5-5zm5 9H7a1 1 0 0 0-1 1v8a1 1 0 0 0 1 1h10a1 1 0 0 0 1-1v-8a1 1 0 0 0-1-1zm-5 1a2 2 0 0 1 1 3.73V18a1 1 0 0 1-2 0v-3.27A2 2 0 0 1 12 11zm0-8a3 3 0 0 0-3 2.82V8h6V6a3 3 0 0 0-3-3z"/>
</svg>
